findly-builder/apps/searchassist/src/assets/icons/sidemenu/new-icons/index.svg

<svg width="15" height="15" viewBox="0 0 15 15" fill="none" xmlns="http://www.w3.org/2000/svg">
<path d="M1.51708 0C0.690539 0 0.00976562 0.677469 0.00976562 1.5V11.5C0.00976562 12.3225 0.690539 13 1.51708 13H6.03903V12H1.51708C1.23424 12 1.01464 11.7815 1.01464 11.5V9H3.0244V8H1.01464V5H3.0244V4H1.01464V1.5C1.01464 1.21853 1.23424 1 1.51708 1H10.561C10.8438 1 11.0634 1.21853 11.0634 1.5V4H4.02928V5H11.0634V7.125H12.0683V1.5C12.0683 0.677469 11.3875 0 10.561 0H1.51708ZM4.02928 8V9H6.03903V8H4.02928ZM10.0585 8V9.05078H10.0566C9.7377 9.11617 9.44224 9.24406 9.17928 9.41797L8.40403 8.64648L7.69355 9.35352L8.4688 10.125C8.29404 10.3867 8.16553 10.6827 8.09982 11H7.04391V12H8.09982V12.002C8.16553 12.3193 8.29404 12.6133 8.4688 12.875L7.69355 13.6465L8.40403 14.3535L9.17928 13.582C9.44224 13.7559 9.73966 13.8838 10.0585 13.9492V15H11.0634V13.9492H11.0654C11.3736 13.886 11.6588 13.7627 11.9152 13.5977L12.7003 14.4609L13.4461 13.7891L12.6375 12.9023C12.8214 12.6343 12.9542 12.328 13.0222 12H14.0781V11H13.0222V10.998C12.9568 10.6825 12.8303 10.3895 12.6571 10.1289L13.4245 9.37695L12.7219 8.66406L11.9486 9.41992C11.6844 9.24427 11.3844 9.1166 11.0634 9.05078V8H10.0585ZM10.561 10C11.3994 10 12.0683 10.6657 12.0683 11.5C12.0683 12.3343 11.3994 13 10.561 13C9.72257 13 9.05367 12.3343 9.05367 11.5C9.05367 10.6657 9.72257 10 10.561 10Z" fill="#202124"/>
</svg>

<svg width="15" height="15" fill="none" xmlns="http://www.w3.org/2000/svg"><path d="M1.517 0C.691 0 .01.677.01 1.5v10c0 .822.68 1.5 1.507 1.5H6.04v-1H1.517a.495.495 0 0 1-.502-.5V9h2.01V8h-2.01V5h2.01V4h-2.01V1.5c0-.281.22-.5.502-.5h9.044c.283 0 .502.219.502.5V4H4.03v1h7.034v2.125h1.005V1.5c0-.823-.68-1.5-1.507-1.5H1.517ZM4.03 8v1h2.01V8H4.03Zm6.03 0v1.05h-.002a2.5 2.5 0 0 0-.878.368l-.775-.772-.71.708.775.771A2.485 2.485 0 0 0 8.1 11H7.045v1H8.1v.002c.066.317.194.611.369.873l-.775.771.71.707.775-.771c.263.174.56.302.88.367V15h1.004v-1.05h.002c.309-.064.594-.187.85-.352l.785.863.746-.672-.809-.887c.184-.268.317-.574.385-.902h1.056v-1h-1.056v-.002a2.478 2.478 0 0 0-.365-.87l.768-.751-.703-.713-.773.756a2.511 2.511 0 0 0-.886-.37V8h-1.005Zm.502 2c.838 0 1.507.666 1.507 1.5S11.4 13 10.561 13a1.496 1.496 0 0 1-1.507-1.5c0-.834.669-1.5 1.507-1.5Z" fill="#202124"/></svg>
